X: 21501
T: THE BROADSWORD HORNPIPE
R: hornpipe, reel
B: K\"ohler's Violin Repository, v.2, 1885 p.150 #1
F: http://www.archive.org/details/klersviolinrepos02rugg
Z: 2012 John Chambers <jc:trillian.mit.edu>
M: C|
L: 1/8
K: Bb
  uF2 | BABc Bdfd | cBcd fedc | BABc Bdfd | cBcd B2 :|\
|: z2 | vcdcB Acf2 | (=ef)ge fgaf | cdcB Acf2 | (=ef)ge f2 :|
[| u(3f/g/a) | (bf)ff (fd)dd | (dB)BB F3(A | B2)Bd (cB)cd | edcB \
        AcFf | (bf)ff (fd)dd | (dB)BB F3(A | B2)Bd (cB)cd | B2B2 B2 |]
[| (Bc) | dcde dcde | dcde d2A2 | G^FGA BABc | dcBA \
   GABc | d2{e}dc d2{e}dc | d2{e}d^c d2A2 | (G^F)GA BABc | dcBA G2 "^D.C."|]

%%sep 2 1 500

